logo/drools-icon.svg

<?xml version="1.0" encoding="UTF-8"?>
<svg width="256px" height="342px" viewBox="0 0 256 342" version="1.1" xmlns="http://www.w3.org/2000/svg" preserveAspectRatio="xMidYMid">
    <title>Drools</title>
    <g>
        <path d="M56.3594107,263.854682 C55.7952238,263.854682 55.2240371,263.781884 54.6528503,263.630688 C51.1501315,262.691309 49.0669798,259.084993 50.006358,255.579474 C60.8659063,215.037814 58.7897544,106.572529 58.7659549,105.479154 C58.6917567,101.854638 61.5756898,98.8503081 65.2044057,98.7803097 C65.2506046,98.7761098 65.2954036,98.7761098 65.3388025,98.7761098 C68.9073198,98.7761098 71.8346519,101.629244 71.9074502,105.215961 C71.9998481,109.744856 74.0396008,216.658977 62.7040636,258.985595 C61.9172819,261.918527 59.2601435,263.854682 56.3594107,263.854682 Z" fill="#0095DD"></path>
        <path d="M151.077015,182.145577 C137.859921,182.145577 126.728779,176.699703 126.010596,176.337112 C122.765471,174.715949 121.449502,170.768041 123.072064,167.524316 C124.691826,164.287591 128.624335,162.964622 131.87926,164.578784 C132.269851,164.77198 152.56658,174.508754 166.205064,164.430388 C169.121196,162.266038 173.235701,162.886223 175.394451,165.805156 C177.553201,168.722688 176.935815,172.835793 174.018283,174.994543 C166.710452,180.398417 158.559841,182.145577 151.077015,182.145577 Z" fill="#7658B1"></path>
        <path d="M177.112211,245.8581 C171.860933,245.8581 165.916671,245.537507 159.230426,245.130117 C155.60731,244.907522 152.850774,241.789794 153.071968,238.163878 C153.293163,234.542162 156.381492,231.806625 160.032607,232.008221 C173.806888,232.853801 189.410926,233.815579 193.169839,229.237685 C195.905375,225.900162 195.328589,216.761174 191.450679,202.078315 C181.936499,166.05435 190.207507,153.916631 198.70951,145.372629 C199.304496,144.780443 199.857484,144.228856 200.332073,143.682869 C206.078939,137.124021 224.701308,126.971456 228.373423,125.004502 C231.573748,123.288142 235.556656,124.494914 237.268816,127.691039 C238.982377,130.891365 237.779804,134.871473 234.582279,136.589233 C226.31547,141.01733 213.292972,148.834749 210.224243,152.336068 C209.581658,153.073851 208.834076,153.832633 208.030494,154.641815 C203.148807,159.548701 195.769578,166.961529 204.156784,198.716993 C209.52426,219.051521 209.286265,230.30866 203.329403,237.570292 C197.982927,244.091341 189.451525,245.8581 177.112211,245.8581 Z" fill="#FF8A12"></path>
        <path d="M164.054714,341.025093 C147.81649,341.025093 131.89046,333.778861 120.763517,320.656965 C94.5813245,289.775081 75.4381684,290.062075 75.2155735,290.035475 C71.5882577,290.27907 68.5643278,287.375537 68.3865319,283.79722 C68.207336,280.218903 70.8630745,277.164174 74.4343917,276.91778 C76.9991322,276.767983 100.330991,276.233195 130.787285,312.156363 C142.338417,325.779447 159.712014,331.114723 176.126634,326.07204 C208.106092,316.252668 230.747767,270.735523 238.236194,201.193535 C244.85664,139.73076 248.775149,76.8862174 218.383254,43.0504019 C200.312473,22.9244685 170.858556,13.1442952 128.341542,13.1442952 C37.0412586,13.1442952 18.2410945,72.6471156 14.3967837,98.2315225 C8.60791788,136.755829 23.439174,176.663304 46.1312479,183.642142 C49.6003675,184.710317 51.5491223,188.386632 50.480947,191.857152 C49.4127718,195.323471 45.737857,197.262426 42.2673375,196.202651 C13.3118088,187.300257 -5.40295727,141.542318 1.39808504,96.2785677 C10.4600749,35.9917655 57.9147747,1.98947353e-14 128.342942,1.98947353e-14 C174.805065,1.98947353e-14 207.456507,11.2109401 228.164827,34.2698054 C262.168639,72.1319276 258.24173,138.187996 251.304891,202.601903 C240.239547,305.303521 201.869237,331.914104 179.984944,338.636749 C174.746266,340.243911 169.38439,341.025093 164.054714,341.025093 Z" fill="#DB0012"></path>
    </g>
</svg>

<svg viewBox="0 0 256 342" xmlns="http://www.w3.org/2000/svg"><path fill="#0095DD" d="M56.35 263.85c-.57 0-1.14-.08-1.71-.23 -3.51-.94-5.59-4.55-4.65-8.06 10.85-40.55 8.78-149.01 8.75-150.11 -.08-3.63 2.8-6.63 6.43-6.7 .04-.01.09-.01.13-.01 3.56 0 6.49 2.85 6.56 6.43 .09 4.52 2.13 111.44-9.21 153.76 -.79 2.93-3.45 4.86-6.35 4.86Z"/><path fill="#7658B1" d="M151.07 182.14c-13.22 0-24.35-5.45-25.07-5.81 -3.25-1.63-4.57-5.57-2.94-8.82 1.61-3.24 5.55-4.56 8.8-2.95 .39.19 20.68 9.92 34.32-.15 2.91-2.17 7.03-1.55 9.18 1.37 2.15 2.91 1.54 7.03-1.38 9.18 -7.31 5.4-15.46 7.15-22.95 7.15Z"/><path fill="#FF8A12" d="M177.11 245.85c-5.26 0-11.2-.33-17.89-.73 -3.63-.23-6.38-3.35-6.16-6.97 .22-3.63 3.3-6.36 6.96-6.16 13.77.84 29.37 1.8 33.13-2.78 2.73-3.34 2.15-12.48-1.72-27.16 -9.52-36.03-1.25-48.17 7.25-56.71 .59-.6 1.14-1.15 1.62-1.69 5.74-6.56 24.36-16.72 28.04-18.68 3.2-1.72 7.18-.51 8.89 2.68 1.71 3.2.51 7.18-2.69 8.89 -8.27 4.42-21.29 12.24-24.36 15.74 -.65.73-1.4 1.49-2.2 2.3 -4.89 4.9-12.27 12.31-3.88 44.07 5.36 20.33 5.12 31.59-.83 38.85 -5.35 6.52-13.88 8.28-26.22 8.28Z"/><path fill="#DB0012" d="M164.05 341.02c-16.24 0-32.17-7.25-43.3-20.37 -26.19-30.89-45.33-30.6-45.55-30.63 -3.63.24-6.66-2.66-6.83-6.24 -.18-3.58 2.47-6.64 6.04-6.88 2.56-.15 25.89-.69 56.35 35.23 11.55 13.62 28.92 18.95 45.33 13.91 31.97-9.82 54.62-55.34 62.1-124.88 6.62-61.47 10.53-124.31-19.86-158.15 -18.08-20.13-47.53-29.91-90.05-29.91C36.97 13.09 18.17 72.6 14.33 98.18c-5.79 38.52 9.04 78.43 31.73 85.41 3.46 1.06 5.41 4.74 4.34 8.21 -1.07 3.46-4.75 5.4-8.22 4.34 -28.96-8.91-47.68-54.67-40.87-99.93C10.37 35.92 57.82-.07 128.25-.07c46.46 0 79.11 11.21 99.82 34.26 34 37.86 30.07 103.91 23.14 168.33 -11.07 102.7-49.44 129.31-71.32 136.03 -5.24 1.6-10.61 2.38-15.94 2.38Z"/></svg>
